X:214
%%etbk:tnset id:158,pos:2,rep:3x,ant:
%%etbk:skill ?
%%etbk:pldat 2013-11-19T16:42,2013-11-16T15:25,2013-11-13T16:33,2013-05-14T18:40,2013-05-02T18:02
T:Thady Casey's
T:Pat Mahon's
H: Created 2013-02-19 /  Modified 2013-03-27
R:Reel
M:4/4
L:1/8
K: Edor
|: "em"!2!B2BA !2!(3Bcd !5!ed | !2!B2A!4!d !2!BE-EE| !3!B!2!A!1!G!2!A !3!B!1!d !2!e!3!f |1 !4!gfe!1!d !2!(3Bcd !5!ed:|2 !4!gfe!1!d !2!B!1!def||
|: "G"!5!g2g!3!e !2!d!1!BB{e}B| !2!d!4!gg{a}g !1!B!2!d!3!e!2!f | !3!g2!3!ga !5!bga!2!f|1 !5!gfed !1!Bdef:|2 !5!gfed !1!Bded||
